**kern	**silbe
*ICvox	*
=1	=1
*D:	*
*M4/4	*
*clefC3	*
2r	.
4r	.
8r	.
16a	Ba
16b-	ba
=2	=2
8cc	ba-
8b-	-ya
8a	ba
[8g	bum
8g]	_
4e	bum
[8f	ba
=3	=3
4f]	_
4r	...
4r	.
8r	.
24e	ba-
24f	-da-
24e	-ya
=4	=4
4.d	bum
[8A	bum
8A]	_
4a	wee
[8a	bah
=5	=5
4.a]	_
8r	....
4r	.
8r	.
16a	_
16b-	_
=6	=6
8cc	Ba
8b-	ba-
8a	-ya
[8g	ba
8g]	bum
4e	_
[8f	_
=7	=7
4f_	ba
8.f]	_
16r	.
4r	.
4r	.
=8	=8
2r	.
8r	.
8d	When
8e	we
eq	_
8f#	met
=9	=9
8e	_
8r	...
4r	.
8r	.
8a	Al
8g	_
8g	ways
=10	=10
8f#	_
16g	knew
[16f#	_
=11	=11
2f#]	_
8r	,
8d	I
8e	would
eq	_
[8f#	feel
=12	=12
4f#]	_
8g	that
[8e	ma
8e]	_
8d	gic
16f	for
16d	_
[8e	you
=13	=13
4e]	_
4r	.
8r	.
8d	On
8e	my
eq	_
8f#	min
=14	=14
8e	_
8e	d
4r	,
8r	.
4a	con-
16g	-stant
16f#	_
=15	=15
16g	ly
8.f#	_
4r	,
8r	.
8d	in
8e	my
[8f#	arms
=16	=16
4f#]	_
8g	is
[8e	where
8e]	_
8d	you
16f	should
16d	_
8e	be
=17	=17
2r	.
8r	.
8.d	Mmm.
16r	.
8r	.
=18	=18
4r	.
8f#	I
8e	_
8e	love
4d	you
[8e	here
=19	=19
8e]	_
8f#	by
8e	_
16e	me
[16d	_
4d]	,
dq	_
8e	ba-
8f#	-by
=20	=20
4r	,
8f#	you
8e	_
8e	let
4d	my
[8a	love
=21	=21
8a]	_
8f#	fly
8e	_
16e	free
[16d	_
8d]	_
16e	ly
16f#	_
8e	_
8r	.
=22	=22
4r	.
8f#	I
8e	_
8e	want
4d	you
[8e	in
=23	=23
8e]	_
8f#	my
8d	_
8d	life
8r	,
16d	for
16e	_
8f#	all
8f#	time
=24	=24
16e	_
[8.d	_
4d_	_
8.d]	_
16r	,
4r	.
=25	=25
Aq	_
4B	I'm
8c#	_
[8d	_
8d]	_
8e	_
8f#	_
[8a	_
=26	=26
2a_	_
8a]	_
8f#	_
4r	...
=27	=27
gq	_
8a	caught
8a	up
32a	in
16.f#	_
32f#	the
16.e	_
8e	rap-
8c#	-ture
8c#	of
32d	love
[16.B	_
=28	=28
2B_	_
8B]	_
Gq	_
8r	.
4r	.
=29	=29
Aq	_
4B	No-
8c#	-thing
[8d	else
8d]	_
8e	can
8f#	com
eq	_
8f#	pare
=30	=30
2.e	_
4r	...
=31	=31
gq	_
8a	When
8a	I
32a	feel
16.f#	_
32f#	the
16.e	_
8e	ma-
8c#	-gic
8c#	in
32d	you
[16.B	_
=32	=32
2B_	_
8B]	_
8r	.
4r	.
=33	=33
Aq	I
4B	_
8c#	_
c#q	_
[8d	_
8d]	_
8e	_
8f#	_
[8a	_
=34	=34
2a_	_
8a]	!
8r	.
8r	.
16a	Ba
16b-	ba
=35	=35
8cc	ba
8b-	ya
8a	ba
[8g	bum
8g]	_
4e	bum
[8f	ba
=36	=36
4f]	_
4r	...
4r	.
8r	.
24e	huh
24f	huh
24e	ya
=37	=37
4.d	bum
[8A	bum
8A]	,
4a	we
[8a	stand
=38	=38
8a]	_
8f#	_
4r	,
8r	.
8a	side
8g	_
8g	by
=39	=39
8f#	_
[8f#	side
8.f#]	_
B	_
F#	_
8r	,
8d	'till
8e	the
16e	storms
[16f#	_
=40	=40
4f#]	_
8g	of
[8e	life
8e]	_
8d	pass
8f	us
dq	_
8e	by
=41	=41
4e	_
4r	.
8r	.
8d	Light
8e	my
eq	_
8f#	life
=42	=42
8e	_
8r	!
4r	.
8r	.
8a	Warm
8g	_
8g	my
=43	=43
8f#	_
8f#	heart
16e	_
8.d	_
8r	!
8d	Say
8e	to
eq	_
[8f#	night
=44	=44
4f#]	_
32g	will
16.e	_
[8e	be
8e]	_
8d	just
16d	the
dq	_
8e	start!
=45	=45
1r	.
=46	=46
4r	.
8f#	I
8e	_
32e	love
16.d	_
[8d	you
8d]	_
[8e	here
=47	=47
8e]	_
8f#	by
8e	_
16e	me
[16d	_
4d]	,
dq	_
8e	ba-
eq	_
8f#	-by
=48	=48
4r	,
8f#	you
8e	_
8e	let
4d	my
[8a	love
=49	=49
8a]	_
eq	_
8f	fly
8e	_
16e	free
[16d	_
8d]	_
16e	ly
16f#	_
8e	_
8r	.
=50	=50
4r	.
8f#	I
8e	_
8e	want
4d	you
[8e	in
=51	=51
8e]	_
8f#	my
8d	_
8d	life
8r	,
dq	_
8e	for
8f#	all
8f#	time
=52	=52
16e	_
[8.d	_
4d_	_
8.d]	_
16r	,
4r	.
=53	=53
Aq	_
4B	I'm
8c#	_
[8d	_
8d]	_
8e	_
8f#	_
[8a	_
=54	=54
2a_	_
8a]	_
8f#	_
4r	...
=55	=55
gq	_
8a	caught
8a	up
32a	in
16.f#	_
32f#	the
16.e	_
32e	rap-
16.c#	_
8c#	-ture
8c#	of
32d	love
[16.B	_
=56	=56
2B_	_
8B]	_
Gq	_
8r	.
4r	.
=57	=57
Aq	_
4B	No-
8c#	-thing
[8d	else
8d]	_
8e	can
8f#	com
eq	_
8f#	pare
=58	=58
2.e	_
4r	...
=59	=59
gq	_
8a	When
8a	I
32a	feel
16.f#	_
32f#	the
16.e	_
32e	ma-
16.c#	_
8c#	-gic
c#q	_
8d	in
32d	you
[16.B	_
=60	=60
2B_	_
8B]	_
8r	.
8r	.
8A	The
=61	=61
4B	fee-
8c#	-ling's
c#q	_
[8d	al
8d]	_
8e	ways
eq	_
8f#	_
[8a	new
=62	=62
2a_	_
4a]	_
8f#	wa
8r	!
=63	=63
gq	_
8a	Caught
8a	up
32a	in
16.f#	_
32f#	the
16.e	_
32e	rap
16.c#	_
8c#	ture
8c#	of
32d	you
[16.B	_
=64	=64
2B_	_
8B]	_
8r	.
4r	.
=65	=65
Aq	_
4B	I'm
8c#	_
[8d	_
8d]	_
8e	_
8f#	_
[8a	_
=66	=66
2a_	_
8.a]	_
16r	!
4r	.
=67	=67
1r	.
=68	=68
1r	.
=69	=69
1r	.
=70	=70
1r	.
=71	=71
1r	.
=72	=72
1r	.
=73	=73
1r	.
=74	=74
4r	.
4f#	I
8a	love
aq	_
[8b	you
8b]	_
[8cc#	here
=75	=75
8cc#]	_
cc#q	_
8dd	by
8b	_
[8b	me
8b]	_
16a	_
16f#	_
eq	,
8f#	ba-
16e	-by
16d	_
=76	=76
4r	,
8f#	you
8e	_
8e	let
4d	my
[8a	love
=77	=77
8a]	_
eq	_
8f#	fly
8e	_
16e	free
[16d	_
8d]	_
16e	ly
16f#	_
8e	_
8r	.
=78	=78
4r	.
8f#	I
8e	_
8e	want
4d	you
[8e	in
=79	=79
8e]	_
8f#	my
8d	_
8d	life
8r	,
dq	_
8e	for
8f#	all
f#q	_
[8a	time
=80	=80
2a_	_
8a]	_
8r	.
4r	.
=81	=81
Aq	_
4B	I'm
8c#	_
[8d	_
8d]	_
8e	_
8f#	_
[8a	_
=82	=82
2a_	_
8a]	_
8f#	_
4r	...
=83	=83
gq	_
8a	caught
8a	up
32a	in
16.f#	_
32f#	the
16.e	_
32e	rap-
16.c#	_
8c#	-ture
8c#	of
32d	love
[16.B	_
=84	=84
2B_	_
8B]	_
8r	.
4r	.
=85	=85
Aq	_
4B	_
8c#	_
[8d	_
8d]	_
8e	_
8f#	_
eq	_
8f#	_
=86	=86
2.e	_
4r	.
=87	=87
1r	.
=88	=88
1r	.
=89	=89
1r	.
=90	=90
1r	.
=91	=91
1r	.
=92	=92
1r	.
=93	=93
1r	.
=94	=94
1r	.
=95	=95
1r	.
=96	=96
1r	.
*-	*-
!!!ENC: Nathaniel Condit-Schultz